remix/System/login-box-line.svg

<svg viewBox="0 0 24 24" fill="currentColor" xmlns="http://www.w3.org/2000/svg"><path d="M4 15H6V20H18V4H6V9H4V3C4 2.44772 4.44772 2 5 2H19C19.5523 2 20 2.44772 20 3V21C20 21.5523 19.5523 22 19 22H5C4.44772 22 4 21.5523 4 21V15ZM10 11V8L15 12L10 16V13H2V11H10Z"/></svg>

<svg viewBox="0 0 24 24" xmlns="http://www.w3.org/2000/svg"><path fill="none" d="M0 0h24v24H0Z"/><path d="M4 15h2v5h12V4H6v5H4V3v0c0-.56.44-1 1-1h14v0c.55 0 1 .44 1 1v18 0c0 .55-.45 1-1 1H5v0c-.56 0-1-.45-1-1v-6Zm6-4V8l5 4 -5 4v-3H2v-2h8Z"/></svg>
